X:1
T:[ID 2-65b]
T:[ID 2-65b]
T:Bezeichnung standardisiert: Schottisch Triller; Tantz In dieser Quelle auch als: Schottisch Triller In anderer Quelle: Baure - Hs. \"OVLA E-97/E-149 um 1750 (Anm. S. Wascher);  Schottisch = Triller - Tanzbuch aus Arendsee (Anm. S. Wascher);  Eyndhoofsche kermes (Anm. S. Wascher);
T:Urheber unbekannt Erstbeleg: 1687 (Datum in der schriftlichen Quelle) Datum in der hier transkribierten schriftlichen Quelle: 1767
C:Urheber unbekannt
C:Erstbeleg: 1687 (Datum in der schriftlichen Quelle)
C:Datum in der hier transkribierten schriftlichen Quelle: 1767
L:1/8
M:2/4
K:G
V:1 treble 
V:1
 gf/e/dc | Bc d2 | gf/e/ dg | fa e2 | gf/e/ dc | Bc d2 | BA/G/ F/G/A/F/ | G2 G,2 :: GBGB | %9
 GB/c/ d2 | FAFA | FA/B/ c2 | GBGB | GB/c/ d2 | BA/G/ F/G/A/F/ | G2 G,2 :| %16

